X: 1414
T: An Tri Is A Rian
R: hornpipe
M: 4/4
K: Gmajor
~G2BG EFGA|Bc (3BAA Bc(3BAA|GABG EFGB|(3ABA (3GFE DcBA|
~G2BG EFGA|Bdef gafg|ecAG FAdc|1 (3BAG (3AFG ~G2 (3DEF:|2 (3BAG (3AFG ~G2Bc||
|:~d3f ~g3e|~d3B ~G2AB|c2ec ~B2dB|(3ABA (3GFE DcBA|
~G2BG EFGA|Bdef gafg|ecAG FAdc|1 (3BAG (3AFG ~G2Bc:|2 (3BAG (3AFG ~G2 (3DEF||

